front/public/static/landing/logos/gray/truelayer.svg

<svg fill="none" height="300" viewBox="0 0 600 300" width="600" xmlns="http://www.w3.org/2000/svg" xmlns:xlink="http://www.w3.org/1999/xlink"><clipPath id="a"><path d="m76 108h455v86h-455z"/></clipPath><g clip-path="url(#a)" fill="#364153"><path d="m211.92 130.942h-26.949c-.274-.014-.549.026-.807.121-.258.094-.495.24-.697.429s-.364.417-.477.67c-.114.254-.175.528-.182.806v1.276c.007.547.226 1.069.611 1.453.384.384.903.6 1.443.6h9.448c.301.013.586.14.798.356.213.216.339.504.352.809v31.348c.014.601.26 1.173.685 1.593s.995.654 1.588.654h1.507c.593 0 1.163-.234 1.588-.654s.67-.992.685-1.593v-31.376c.013-.309.143-.602.361-.818.219-.216.511-.34.816-.347h9.394c.54 0 1.058-.215 1.443-.6.384-.384.604-.906.611-1.453v-1.248c-.014-.281-.083-.556-.202-.81s-.286-.481-.492-.669c-.207-.188-.447-.333-.709-.427-.261-.094-.538-.134-.815-.12z"/><path d="m295.969 133.161c-.003-.295-.064-.586-.179-.857-.115-.272-.281-.517-.49-.723-.208-.206-.455-.369-.725-.479-.271-.109-.56-.164-.851-.16h-1.37c-.291-.004-.58.051-.851.16-.27.11-.517.273-.725.479-.209.206-.375.451-.49.723-.115.271-.176.562-.179.857v22.194c-.009 1.275-.266 2.536-.756 3.71-.49 1.175-1.204 2.24-2.1 3.135-.897.896-1.958 1.603-3.125 2.083-1.166.479-2.414.721-3.673.712s-2.504-.269-3.663-.765c-1.16-.497-2.211-1.22-3.095-2.128s-1.582-1.983-2.056-3.165c-.473-1.181-.712-2.446-.703-3.721v-22.193c-.004-.295-.065-.587-.179-.858-.115-.271-.282-.517-.49-.723-.209-.206-.455-.369-.726-.478-.27-.11-.559-.164-.851-.161h-1.424c-.291-.003-.58.051-.851.161-.27.109-.517.272-.725.478-.209.206-.375.452-.49.723s-.176.563-.18.858v22.582c0 4.179 1.639 8.187 4.557 11.142 2.917 2.955 6.873 4.615 10.999 4.615s8.082-1.66 10.999-4.615c2.918-2.955 4.557-6.963 4.557-11.142z"/><path d="m373.473 165.675h-13.529c-.153.004-.306-.023-.449-.08-.142-.057-.272-.142-.382-.251s-.197-.238-.257-.381c-.059-.144-.09-.298-.09-.453v-31.321c-.014-.601-.26-1.172-.685-1.592-.424-.42-.994-.655-1.588-.655h-1.506c-.594 0-1.164.235-1.588.655-.425.42-.671.991-.685 1.592v35.677c.007.583.241 1.141.651 1.551s.963.64 1.54.64h18.431c.259.004.516-.044.757-.141.24-.097.46-.241.645-.424.186-.183.334-.401.437-.642.102-.241.157-.5.16-.762v-1.304c.041-.268.023-.541-.053-.8-.076-.26-.208-.499-.386-.7-.178-.202-.398-.361-.644-.466s-.512-.154-.779-.143z"/><path d="m245.441 154.884c2.367-.897 4.414-2.492 5.879-4.578 1.464-2.087 2.278-4.57 2.337-7.129.003-1.615-.309-3.214-.92-4.706-.611-1.491-1.508-2.845-2.639-3.983s-2.473-2.037-3.95-2.646c-1.476-.608-3.057-.914-4.651-.9h-13.94c-.583.008-1.141.248-1.551.668-.41.421-.64.988-.64 1.579v1.082 34.484c0 .591.23 1.158.64 1.579.41.42.968.66 1.551.668h1.342c.581-.015 1.135-.257 1.543-.676.409-.419.641-.982.648-1.571v-12.235c-.004-.151.023-.302.077-.443.055-.142.137-.27.242-.379.105-.108.23-.195.368-.254.138-.058.286-.089.436-.089h6.901c.12 0 .238.03.344.088.105.059.194.143.259.245l7.175 14.232c.288.51.76.887 1.316 1.052.557.166 1.155.107 1.669-.164l1.205-.694c.513-.297.89-.787 1.049-1.363.159-.577.087-1.193-.2-1.716zm-4.328-4.467h-8.763c-.289.001-.566-.112-.775-.313-.21-.202-.334-.477-.348-.769v-10.819-.666c-.008-.292.096-.577.29-.794s.462-.35.751-.371h8.654c1.816-.026 3.567.68 4.869 1.963 1.302 1.282 2.048 3.036 2.073 4.875.026 1.84-.671 3.614-1.937 4.933s-2.998 2.074-4.814 2.1z"/><path d="m336.474 165.731h-16.213c-.153.003-.306-.024-.448-.081-.143-.057-.273-.142-.383-.251-.11-.108-.197-.238-.256-.381-.06-.143-.09-.297-.09-.452v-10.015c0-.156.03-.309.09-.453.059-.143.146-.272.256-.381s.24-.194.383-.251c.142-.057.295-.084.448-.08h13.447c.543 0 1.064-.215 1.453-.598.389-.384.614-.906.628-1.455v-1.304c-.014-.55-.239-1.072-.628-1.455-.389-.384-.91-.598-1.453-.598h-13.447c-.153.004-.306-.024-.448-.081-.143-.057-.273-.142-.383-.25-.11-.109-.197-.239-.256-.382-.06-.143-.09-.297-.09-.452v-9.294c0-.155.03-.309.09-.452.059-.143.146-.273.256-.382.11-.108.24-.193.383-.25.142-.057.295-.085.448-.081h16.213c.27.004.538-.046.788-.148.251-.101.479-.251.673-.442.193-.19.347-.418.454-.669.106-.251.163-.521.166-.794v-1.331c-.003-.274-.06-.544-.166-.795-.107-.251-.261-.478-.454-.669-.194-.19-.422-.34-.673-.442-.25-.101-.518-.151-.788-.147h-21.142c-.291-.012-.582.037-.854.142s-.52.265-.73.469c-.209.205-.376.45-.49.722-.114.271-.172.563-.172.858v35.76c.014.591.258 1.152.679 1.563.42.41.983.636 1.567.628h21.142c.526.008 1.033-.195 1.412-.563.38-.369.6-.874.615-1.406v-1.304c.003-.271-.047-.54-.147-.79-.101-.251-.25-.479-.439-.67-.189-.192-.414-.343-.661-.445-.248-.101-.513-.152-.78-.148z"/><path d="m486.47 165.731h-16.103c-.306-.007-.598-.131-.816-.347-.219-.217-.348-.509-.362-.818v-.888-9.127c.014-.309.143-.602.362-.818.218-.216.51-.341.816-.347h13.419c.27.003.538-.047.788-.148.251-.101.479-.251.673-.442.193-.191.347-.418.454-.669.106-.251.163-.521.166-.794v-1.304c-.014-.55-.239-1.072-.628-1.455-.389-.384-.91-.598-1.453-.598h-13.419c-.154.004-.306-.024-.449-.081-.143-.056-.273-.142-.382-.25-.11-.109-.197-.239-.257-.382-.059-.143-.09-.297-.09-.452v-8.628-.666c-.004-.156.024-.312.082-.457s.145-.276.256-.385c.111-.11.242-.195.387-.25.144-.056.298-.081.453-.073h16.212c.543 0 1.064-.214 1.453-.598.389-.383.615-.905.629-1.455v-1.331c-.004-.274-.06-.543-.167-.794-.106-.252-.261-.479-.454-.67-.193-.19-.422-.34-.672-.442-.251-.101-.519-.151-.789-.147h-21.169c-.289-.008-.576.044-.845.15-.269.107-.514.267-.721.472-.206.204-.371.448-.483.718-.112.269-.17.559-.17.851v35.76c.004.291.064.579.178.847.113.268.277.51.483.714.206.203.45.364.717.472s.553.162.841.158h21.169c.526.008 1.033-.195 1.413-.563.379-.369.6-.874.614-1.406v-1.304c.001-.279-.055-.556-.164-.812-.109-.257-.268-.488-.468-.681-.2-.192-.436-.34-.695-.437-.258-.096-.534-.138-.809-.123z"/><path d="m420.441 167.506-16.897-36.064c-.108-.171-.253-.315-.424-.421s-.363-.171-.562-.189h-.658c-.196.016-.385.08-.552.187-.167.106-.306.251-.406.423l-16.98 36.064c-.114.251-.177.523-.186.799-.01.276.036.551.132.809.097.259.244.495.432.695s.413.361.663.472l1.26.527c.515.229 1.097.253 1.63.068.532-.185.977-.566 1.245-1.067l3.341-7.157c.113-.109.257-.177.411-.195h18.377c.114.007.226.04.326.098s.185.138.249.235l3.341 7.074c.259.511.701.903 1.236 1.093.535.191 1.121.168 1.639-.066l1.26-.555c.518-.226.927-.65 1.137-1.18.211-.53.206-1.123-.014-1.65zm-11.886-9.959h-12.789c-.163 0-.319-.063-.436-.177-.118-.114-.187-.269-.194-.433-.017-.03-.026-.063-.026-.097s.009-.068.026-.097l6.764-14.482c.035-.015.072-.023.11-.023s.075.008.109.023c.062-.023.13-.023.192 0l6.792 14.482c.031.065.049.136.053.208.003.073-.009.145-.035.213-.025.067-.065.129-.115.181-.05.051-.11.092-.177.119-.098.028-.203.028-.301 0z"/><path d="m451.196 132.412-1.37-1.026c-.235-.178-.502-.308-.787-.381s-.581-.088-.871-.044c-.291.044-.569.146-.821.3-.251.154-.47.357-.643.597l-10.078 13.871c-.075.068-.173.106-.274.106s-.199-.038-.274-.106l-10.16-13.871c-.362-.46-.882-.764-1.456-.851-.574-.088-1.159.048-1.639.379l-1.397 1.026c-.348.376-.542.872-.542 1.388 0 .515.194 1.011.542 1.387l12.023 16.645v17.033c.014.601.26 1.173.685 1.593s.995.655 1.588.654h1.452c.593.001 1.163-.234 1.588-.654s.67-.992.685-1.593v-17.172l11.749-16.479c.362-.373.566-.876.566-1.401 0-.524-.204-1.027-.566-1.401z"/><path d="m522.757 154.911c2.365-.9 4.411-2.495 5.874-4.581 1.464-2.086 2.28-4.567 2.342-7.126.004-1.609-.306-3.203-.912-4.69-.605-1.488-1.494-2.84-2.616-3.979-1.122-1.138-2.454-2.042-3.921-2.659-1.467-.616-3.04-.934-4.629-.934h-14.021c-.584.008-1.141.248-1.551.668-.411.421-.64.988-.64 1.579v35.621c0 .591.229 1.159.64 1.579.41.421.967.661 1.551.668h1.314c.584-.007 1.141-.247 1.551-.668.41-.42.64-.988.64-1.579v-12.345c0-.152.03-.302.088-.442s.143-.266.251-.372c.107-.106.234-.189.373-.245.14-.055.289-.082.438-.078h6.902c.121-.007.241.021.347.08.107.059.195.146.255.252l7.175 14.232c.138.258.325.485.549.67.225.184.484.321.761.404.278.082.569.108.856.076.288-.031.566-.121.82-.262l1.177-.666c.518-.292.9-.78 1.065-1.357.164-.577.096-1.196-.188-1.722zm-4.382-4.466h-8.764c-.288 0-.566-.112-.775-.313-.209-.202-.333-.477-.347-.769v-11.652c-.004-.151.022-.302.077-.443.055-.142.137-.27.242-.379.104-.108.229-.195.367-.254.138-.058.287-.089.436-.089h8.627c1.712.137 3.312.918 4.484 2.19s1.832 2.942 1.849 4.682-.609 3.423-1.756 4.719c-1.147 1.295-2.731 2.109-4.44 2.28z"/><path d="m80.5455 173.415 34.8085 19.669c.796.587 1.754.903 2.738.903.985 0 1.943-.316 2.739-.903l36.945-21.028c1.287-.832 2.191-1.498 2.191-2.996-.036-.558-.22-1.095-.534-1.554-.313-.459-.744-.824-1.247-1.054l-9.914-6.575 9.449-5.409c.882-.41 1.641-1.05 2.2-1.854.558-.804.895-1.744.977-2.724v-14.592c.124-1.154-.124-2.318-.706-3.318-.583-1-1.469-1.783-2.526-2.231 0 0-36.26-20.667-36.26-20.667-.991-.705-2.172-1.082-3.382-1.082s-2.391.377-3.382 1.082l-36.2874 20.945c-.6373.329-1.1733.829-1.5499 1.445-.3766.617-.5793 1.326-.5862 2.05 0 1.776 1.8622 3.135 2.1361 3.357l9.4484 5.549-9.9961 6.02c-.4734.297-.8711.703-1.1612 1.185-.2902.482-.4647 1.026-.5094 1.589v14.093c-.2471 1.653.051 3.343.8481 4.808.7972 1.464 2.0489 2.621 3.5611 3.292zm72.9035-4.106-35.357 19.669-34.1505-19.114 10.6807-6.075 22.1828 12.595c.383.195.805.296 1.233.296s.85-.101 1.232-.296l23.963-13.871zm2.957-20.945-9.53-5.798 9.53-5.548zm-35.602-33.873 32.425 18.893-10.68 6.491-21.91-13.205zm-2.739 16.285 19.746 11.929-19.746 11.291-20.1564-11.568 20.2384-11.652zm-35.7941 2.746 33.2201-19.031v12.179l-23.0597 12.956zm10.489 11.846 24.0451 13.677c.393.209.83.318 1.274.318.443 0 .88-.109 1.273-.318l23.06-13.677 10.407 6.298-34.781 19.641-35.3563-20.196zm-12.0774 10.32 9.3388 5.271-9.3388 5.299z"/></g></svg>

<svg width="600" height="300" viewBox="0 0 600 300" fill="none" xmlns="http://www.w3.org/2000/svg">
<g clip-path="url(#clip0_3666_2858)">
<path d="M211.92 130.942H184.971C184.697 130.928 184.422 130.968 184.164 131.063C183.906 131.157 183.669 131.303 183.467 131.492C183.265 131.681 183.103 131.909 182.99 132.162C182.876 132.416 182.815 132.69 182.808 132.968V134.244C182.815 134.791 183.034 135.313 183.419 135.697C183.803 136.081 184.322 136.297 184.862 136.297H194.31C194.611 136.31 194.896 136.437 195.108 136.653C195.321 136.869 195.447 137.157 195.46 137.462V168.81C195.474 169.411 195.72 169.983 196.145 170.403C196.57 170.823 197.14 171.057 197.733 171.057H199.24C199.833 171.057 200.403 170.823 200.828 170.403C201.253 169.983 201.498 169.411 201.513 168.81V137.434C201.526 137.125 201.656 136.832 201.874 136.616C202.093 136.4 202.385 136.276 202.69 136.269H212.084C212.624 136.269 213.142 136.054 213.527 135.669C213.911 135.285 214.131 134.763 214.138 134.216V132.968C214.124 132.687 214.055 132.412 213.936 132.158C213.817 131.904 213.65 131.677 213.444 131.489C213.237 131.301 212.997 131.156 212.735 131.062C212.474 130.968 212.197 130.928 211.92 130.942Z" fill="#364153"/>
<path d="M295.969 133.161C295.966 132.866 295.905 132.575 295.79 132.304C295.675 132.032 295.509 131.787 295.3 131.581C295.092 131.375 294.845 131.212 294.575 131.102C294.304 130.993 294.015 130.938 293.724 130.942H292.354C292.063 130.938 291.774 130.993 291.503 131.102C291.233 131.212 290.986 131.375 290.778 131.581C290.569 131.787 290.403 132.032 290.288 132.304C290.173 132.575 290.112 132.866 290.109 133.161V155.355C290.1 156.63 289.843 157.891 289.353 159.065C288.863 160.24 288.149 161.305 287.253 162.2C286.356 163.096 285.295 163.803 284.128 164.283C282.962 164.762 281.714 165.004 280.455 164.995C279.196 164.986 277.951 164.726 276.792 164.23C275.632 163.733 274.581 163.01 273.697 162.102C272.813 161.194 272.115 160.119 271.641 158.937C271.168 157.756 270.929 156.491 270.938 155.216V133.023C270.934 132.728 270.873 132.436 270.759 132.165C270.644 131.894 270.477 131.648 270.269 131.442C270.06 131.236 269.814 131.073 269.543 130.964C269.273 130.854 268.984 130.8 268.692 130.803H267.268C266.977 130.8 266.688 130.854 266.417 130.964C266.147 131.073 265.9 131.236 265.692 131.442C265.483 131.648 265.317 131.894 265.202 132.165C265.087 132.436 265.026 132.728 265.022 133.023V155.605C265.022 159.784 266.661 163.792 269.579 166.747C272.496 169.702 276.452 171.362 280.578 171.362C284.704 171.362 288.66 169.702 291.577 166.747C294.495 163.792 296.134 159.784 296.134 155.605L295.969 133.161Z" fill="#364153"/>
<path d="M373.473 165.675H359.944C359.791 165.679 359.638 165.652 359.495 165.595C359.353 165.538 359.223 165.453 359.113 165.344C359.003 165.235 358.916 165.106 358.856 164.963C358.797 164.819 358.766 164.665 358.766 164.51V133.189C358.752 132.588 358.506 132.017 358.081 131.597C357.657 131.177 357.087 130.942 356.493 130.942H354.987C354.393 130.942 353.823 131.177 353.399 131.597C352.974 132.017 352.728 132.588 352.714 133.189V168.866C352.721 169.449 352.955 170.007 353.365 170.417C353.775 170.827 354.328 171.057 354.905 171.057H373.336C373.595 171.061 373.852 171.013 374.093 170.916C374.333 170.819 374.553 170.675 374.738 170.492C374.924 170.309 375.072 170.091 375.175 169.85C375.277 169.609 375.332 169.35 375.335 169.088V167.784C375.376 167.516 375.358 167.243 375.282 166.984C375.206 166.724 375.074 166.485 374.896 166.284C374.718 166.082 374.498 165.923 374.252 165.818C374.006 165.713 373.74 165.664 373.473 165.675Z" fill="#364153"/>
<path d="M245.441 154.884C247.808 153.987 249.855 152.392 251.32 150.306C252.784 148.219 253.598 145.736 253.657 143.177C253.66 141.562 253.348 139.963 252.737 138.471C252.126 136.98 251.229 135.626 250.098 134.488C248.967 133.35 247.625 132.451 246.148 131.842C244.672 131.234 243.091 130.928 241.497 130.942H227.557C226.974 130.95 226.416 131.19 226.006 131.61C225.596 132.031 225.366 132.598 225.366 133.189V134.271V168.755C225.366 169.346 225.596 169.913 226.006 170.334C226.416 170.754 226.974 170.994 227.557 171.002H228.899C229.48 170.987 230.034 170.745 230.442 170.326C230.851 169.907 231.083 169.344 231.09 168.755V156.52C231.086 156.369 231.113 156.218 231.167 156.077C231.222 155.935 231.304 155.807 231.409 155.698C231.514 155.59 231.639 155.503 231.777 155.444C231.915 155.386 232.063 155.355 232.213 155.355H239.114C239.234 155.355 239.352 155.385 239.458 155.443C239.563 155.502 239.652 155.586 239.717 155.688L246.892 169.92C247.18 170.43 247.652 170.807 248.208 170.972C248.765 171.138 249.363 171.079 249.877 170.808L251.082 170.114C251.595 169.817 251.972 169.327 252.131 168.751C252.29 168.174 252.218 167.558 251.931 167.035L245.441 154.884ZM241.113 150.417H232.35C232.061 150.418 231.784 150.305 231.575 150.104C231.365 149.902 231.241 149.627 231.227 149.335V138.516V137.85C231.219 137.558 231.323 137.273 231.517 137.056C231.711 136.839 231.979 136.706 232.268 136.685H240.922C242.738 136.659 244.489 137.365 245.791 138.648C247.093 139.93 247.839 141.684 247.864 143.523C247.89 145.363 247.193 147.137 245.927 148.456C244.661 149.775 242.929 150.53 241.113 150.556V150.417Z" fill="#364153"/>
<path d="M336.474 165.731H320.261C320.108 165.734 319.955 165.707 319.813 165.65C319.67 165.593 319.54 165.508 319.43 165.399C319.32 165.291 319.233 165.161 319.174 165.018C319.114 164.875 319.084 164.721 319.084 164.566V154.551C319.084 154.395 319.114 154.242 319.174 154.098C319.233 153.955 319.32 153.826 319.43 153.717C319.54 153.608 319.67 153.523 319.813 153.466C319.955 153.409 320.108 153.382 320.261 153.386H333.708C334.251 153.386 334.772 153.171 335.161 152.788C335.55 152.404 335.775 151.882 335.789 151.333V150.029C335.775 149.479 335.55 148.957 335.161 148.574C334.772 148.19 334.251 147.976 333.708 147.976H320.261C320.108 147.98 319.955 147.952 319.813 147.895C319.67 147.838 319.54 147.753 319.43 147.645C319.32 147.536 319.233 147.406 319.174 147.263C319.114 147.12 319.084 146.966 319.084 146.811V137.517C319.084 137.362 319.114 137.208 319.174 137.065C319.233 136.922 319.32 136.792 319.43 136.683C319.54 136.575 319.67 136.49 319.813 136.433C319.955 136.376 320.108 136.348 320.261 136.352H336.474C336.744 136.356 337.012 136.306 337.262 136.204C337.513 136.103 337.741 135.953 337.935 135.762C338.128 135.572 338.282 135.344 338.389 135.093C338.495 134.842 338.552 134.572 338.555 134.299V132.968C338.552 132.694 338.495 132.424 338.389 132.173C338.282 131.922 338.128 131.695 337.935 131.504C337.741 131.314 337.513 131.164 337.262 131.062C337.012 130.961 336.744 130.911 336.474 130.915H315.332C315.041 130.903 314.75 130.952 314.478 131.057C314.206 131.162 313.958 131.322 313.748 131.526C313.539 131.731 313.372 131.976 313.258 132.248C313.144 132.519 313.086 132.811 313.086 133.106V168.866C313.1 169.457 313.344 170.018 313.765 170.429C314.185 170.839 314.748 171.065 315.332 171.057H336.474C337 171.065 337.507 170.862 337.886 170.494C338.266 170.125 338.486 169.62 338.501 169.088V167.784C338.504 167.513 338.454 167.244 338.354 166.994C338.253 166.743 338.104 166.515 337.915 166.324C337.726 166.132 337.501 165.981 337.254 165.879C337.006 165.778 336.741 165.727 336.474 165.731Z" fill="#364153"/>
<path d="M486.47 165.731H470.367C470.061 165.724 469.769 165.6 469.551 165.384C469.332 165.167 469.203 164.875 469.189 164.566V163.678V154.551C469.203 154.242 469.332 153.949 469.551 153.733C469.769 153.517 470.061 153.392 470.367 153.386H483.786C484.056 153.389 484.324 153.339 484.574 153.238C484.825 153.137 485.053 152.987 485.247 152.796C485.44 152.605 485.594 152.378 485.701 152.127C485.807 151.876 485.864 151.606 485.867 151.333V150.029C485.853 149.479 485.628 148.957 485.239 148.574C484.85 148.19 484.329 147.976 483.786 147.976H470.367C470.213 147.98 470.061 147.952 469.918 147.895C469.775 147.839 469.645 147.753 469.536 147.645C469.426 147.536 469.339 147.406 469.279 147.263C469.22 147.12 469.189 146.966 469.189 146.811V138.183V137.517C469.185 137.361 469.213 137.205 469.271 137.06C469.329 136.915 469.416 136.784 469.527 136.675C469.638 136.565 469.769 136.48 469.914 136.425C470.058 136.369 470.212 136.344 470.367 136.352H486.579C487.122 136.352 487.643 136.138 488.032 135.754C488.421 135.371 488.647 134.849 488.661 134.299V132.968C488.657 132.694 488.601 132.425 488.494 132.174C488.388 131.922 488.233 131.695 488.04 131.504C487.847 131.314 487.618 131.164 487.368 131.062C487.117 130.961 486.849 130.911 486.579 130.915H465.41C465.121 130.907 464.834 130.959 464.565 131.065C464.296 131.172 464.051 131.332 463.844 131.537C463.638 131.741 463.473 131.985 463.361 132.255C463.249 132.524 463.191 132.814 463.191 133.106V168.866C463.195 169.157 463.255 169.445 463.369 169.713C463.482 169.981 463.646 170.223 463.852 170.427C464.058 170.63 464.302 170.791 464.569 170.899C464.836 171.007 465.122 171.061 465.41 171.057H486.579C487.105 171.065 487.612 170.862 487.992 170.494C488.371 170.125 488.592 169.62 488.606 169.088V167.784C488.607 167.505 488.551 167.228 488.442 166.972C488.333 166.715 488.174 166.484 487.974 166.291C487.774 166.099 487.538 165.951 487.279 165.854C487.021 165.758 486.745 165.716 486.47 165.731Z" fill="#364153"/>
<path d="M420.441 167.506L403.544 131.442C403.436 131.271 403.291 131.127 403.12 131.021C402.949 130.915 402.757 130.85 402.558 130.832H401.9C401.704 130.848 401.515 130.912 401.348 131.019C401.181 131.125 401.042 131.27 400.942 131.442L383.962 167.506C383.848 167.757 383.785 168.029 383.776 168.305C383.766 168.581 383.812 168.856 383.908 169.114C384.005 169.373 384.152 169.609 384.34 169.809C384.528 170.009 384.753 170.17 385.003 170.281L386.263 170.808C386.778 171.037 387.36 171.061 387.893 170.876C388.425 170.691 388.87 170.31 389.138 169.809L392.479 162.652C392.592 162.543 392.736 162.475 392.89 162.457H411.267C411.381 162.464 411.493 162.497 411.593 162.555C411.693 162.613 411.778 162.693 411.842 162.79L415.183 169.864C415.442 170.375 415.884 170.767 416.419 170.957C416.954 171.148 417.54 171.125 418.058 170.891L419.318 170.336C419.836 170.11 420.245 169.686 420.455 169.156C420.666 168.626 420.661 168.033 420.441 167.506ZM408.555 157.547H395.766C395.603 157.547 395.447 157.484 395.33 157.37C395.212 157.256 395.143 157.101 395.136 156.937C395.119 156.907 395.11 156.874 395.11 156.84C395.11 156.806 395.119 156.772 395.136 156.743L401.9 142.261C401.935 142.246 401.972 142.238 402.01 142.238C402.048 142.238 402.085 142.246 402.119 142.261C402.181 142.238 402.249 142.238 402.311 142.261L409.103 156.743C409.134 156.808 409.152 156.879 409.156 156.951C409.159 157.024 409.147 157.096 409.121 157.164C409.096 157.231 409.056 157.293 409.006 157.345C408.956 157.396 408.896 157.437 408.829 157.464C408.731 157.492 408.626 157.492 408.528 157.464L408.555 157.547Z" fill="#364153"/>
<path d="M451.196 132.412L449.826 131.386C449.591 131.208 449.324 131.078 449.039 131.005C448.754 130.932 448.458 130.917 448.168 130.961C447.877 131.005 447.599 131.107 447.347 131.261C447.096 131.415 446.877 131.618 446.704 131.858L436.626 145.729C436.551 145.797 436.453 145.835 436.352 145.835C436.251 145.835 436.153 145.797 436.078 145.729L425.918 131.858C425.556 131.398 425.036 131.094 424.462 131.007C423.888 130.919 423.303 131.055 422.823 131.386L421.426 132.412C421.078 132.788 420.884 133.284 420.884 133.8C420.884 134.315 421.078 134.811 421.426 135.187L433.449 151.832V168.865C433.463 169.466 433.709 170.038 434.134 170.458C434.559 170.878 435.129 171.113 435.722 171.112H437.174C437.767 171.113 438.337 170.878 438.762 170.458C439.187 170.038 439.432 169.466 439.447 168.865V151.693L451.196 135.214C451.558 134.841 451.762 134.338 451.762 133.813C451.762 133.289 451.558 132.786 451.196 132.412Z" fill="#364153"/>
<path d="M522.757 154.911C525.122 154.011 527.168 152.416 528.631 150.33C530.095 148.244 530.911 145.763 530.973 143.204C530.977 141.595 530.667 140.001 530.061 138.514C529.456 137.026 528.567 135.674 527.445 134.535C526.323 133.397 524.991 132.493 523.524 131.876C522.057 131.26 520.484 130.942 518.895 130.942H504.874C504.29 130.95 503.733 131.19 503.323 131.61C502.912 132.031 502.683 132.598 502.683 133.189V168.81C502.683 169.401 502.912 169.969 503.323 170.389C503.733 170.81 504.29 171.05 504.874 171.057H506.188C506.772 171.05 507.329 170.81 507.739 170.389C508.149 169.969 508.379 169.401 508.379 168.81V156.465C508.379 156.313 508.409 156.163 508.467 156.023C508.525 155.883 508.61 155.757 508.718 155.651C508.825 155.545 508.952 155.462 509.091 155.406C509.231 155.351 509.38 155.324 509.529 155.328H516.431C516.552 155.321 516.672 155.349 516.778 155.408C516.885 155.467 516.973 155.554 517.033 155.66L524.208 169.892C524.346 170.15 524.533 170.377 524.757 170.562C524.982 170.746 525.241 170.883 525.518 170.966C525.796 171.048 526.087 171.074 526.374 171.042C526.662 171.011 526.94 170.921 527.194 170.78L528.371 170.114C528.889 169.822 529.271 169.334 529.436 168.757C529.6 168.18 529.532 167.561 529.248 167.035L522.757 154.911ZM518.375 150.445H509.611C509.323 150.445 509.045 150.333 508.836 150.132C508.627 149.93 508.503 149.655 508.489 149.363V137.711C508.485 137.56 508.511 137.409 508.566 137.268C508.621 137.126 508.703 136.998 508.808 136.889C508.912 136.781 509.037 136.694 509.175 136.635C509.313 136.577 509.462 136.546 509.611 136.546H518.238C519.95 136.683 521.55 137.464 522.722 138.736C523.894 140.008 524.554 141.678 524.571 143.418C524.588 145.158 523.962 146.841 522.815 148.137C521.668 149.432 520.084 150.246 518.375 150.417V150.445Z" fill="#364153"/>
<path d="M80.5455 173.415L115.354 193.084C116.15 193.671 117.108 193.987 118.092 193.987C119.077 193.987 120.035 193.671 120.831 193.084L157.776 172.056C159.063 171.224 159.967 170.558 159.967 169.06C159.931 168.502 159.747 167.965 159.433 167.506C159.12 167.047 158.689 166.682 158.186 166.452L148.272 159.877L157.721 154.468C158.603 154.058 159.362 153.418 159.921 152.614C160.479 151.81 160.816 150.87 160.898 149.89V135.298C161.022 134.144 160.774 132.98 160.192 131.98C159.609 130.98 158.723 130.197 157.666 129.749C157.666 129.749 121.406 109.082 121.406 109.082C120.415 108.377 119.234 108 118.024 108C116.814 108 115.633 108.377 114.642 109.082L78.3546 130.027C77.7173 130.356 77.1813 130.856 76.8047 131.472C76.4281 132.089 76.2254 132.798 76.2185 133.522C76.2185 135.298 78.0807 136.657 78.3546 136.879L87.803 142.428L77.8069 148.448C77.3335 148.745 76.9358 149.151 76.6457 149.633C76.3555 150.115 76.181 150.659 76.1363 151.222C76.1363 152.026 76.1363 165.315 76.1363 165.315C75.8892 166.968 76.1873 168.658 76.9844 170.123C77.7816 171.587 79.0333 172.744 80.5455 173.415ZM153.449 169.309L118.092 188.978L83.9415 169.864L94.6222 163.789L116.805 176.384C117.188 176.579 117.61 176.68 118.038 176.68C118.466 176.68 118.888 176.579 119.27 176.384L143.233 162.513L153.449 169.309ZM156.406 148.364L146.876 142.566L156.406 137.018V148.364ZM120.804 114.491L153.229 133.384L142.549 139.875L120.639 126.67L120.804 114.491ZM118.065 130.776L137.811 142.705L118.065 153.996L97.9086 142.428L118.147 130.776H118.065ZM82.2709 133.522L115.491 114.491V126.67L92.4313 139.626L82.2709 133.522ZM92.7599 145.368L116.805 159.045C117.198 159.254 117.635 159.363 118.079 159.363C118.522 159.363 118.959 159.254 119.352 159.045L142.412 145.368L152.819 151.666L118.038 171.307L82.6817 151.111L92.7599 145.368ZM80.6825 155.688L90.0213 160.959L80.6825 166.258V155.688Z" fill="#364153"/>
</g>
<defs>
<clipPath id="clip0_3666_2858">
<rect width="455" height="86" fill="white" transform="translate(76 108)"/>
</clipPath>
</defs>
</svg>
